Yaru++/apps/scalable/gnome-robots.svg

<svg height="256" width="256" xmlns="http://www.w3.org/2000/svg" xmlns:xlink="http://www.w3.org/1999/xlink">
  <filter id="filter11191" color-interpolation-filters="sRGB" height="1.024" width="1.024" x="-.01" y="-.01">
    <feGaussianBlur stdDeviation="1.12"/>
  </filter>
  <filter id="filter11210" color-interpolation-filters="sRGB" height="1.096" width="1.096" x="-.05" y="-.05">
    <feGaussianBlur stdDeviation="4.48"/>
  </filter>
  <circle cx="128.752" cy="127.248" filter="url(#filter11210)" opacity=".1" r="112"/>
  <circle cx="128.752" cy="125.248" filter="url(#filter11191)" opacity=".1" r="112"/>
  <circle cx="128.752" cy="123.248" opacity=".1" r="114"/>
  <circle cx="-128.854" cy="-123.248" fill="#e6e6e6" r="112" transform="scale(-1)"/>
  <path d="m128.752 11.248005a112 112 0 0 0 -111.999999 112.000005 112 112 0 0 0 .04102 1.16992 112 112 0 0 1 111.958979-111.169925 112 112 0 0 1 111.95898 110.830085 112 112 0 0 0 .041-.83008 112 112 0 0 0 -112-112.000005z" fill="#fff" opacity=".3"/>
  <path d="m128.752 235.24801a112 112 0 0 1 -111.999999-112 112 112 0 0 1 .04102-1.16992 112 112 0 0 0 111.958979 111.16992 112 112 0 0 0 111.95898-110.83008 112 112 0 0 1 .041.83008 112 112 0 0 1 -112 112z" opacity=".2"/>
  <path d="m16.752001 127.73194a112.5345 118.26762 0 0 0 111.977529 107.51607 112.5345 118.26762 0 0 0 112.02247-107.51607z" fill="#fff" opacity=".25"/>
  <g enable-background="new" fill="#070707" transform="matrix(2.0740742 0 0 2.0740742 -3.886935 -363.94246)">
    <path d="m-122.38477 91.669922a54 54 0 0 0 -.18554.382812 54 54 0 0 0 -1.85157 5.072266 54 54 0 0 0 -1.33593 5.22852 54 54 0 0 0 -.80664 5.33789 54 54 0 0 0 -.26953 5.39062 54 54 0 0 0 .13476 3.82031 54 54 0 0 0 .65039 5.35743 54 54 0 0 0 1.1836 5.26757 54 54 0 0 0 1.70117 5.12305 54 54 0 0 0 .73242 1.63477h99.251952a54 54 0 0 0 .08398-.17383 54 54 0 0 0 1.849609-5.07031 54 54 0 0 0 1.335938-5.23047 54 54 0 0 0 .80664-5.33789 54 54 0 0 0 .269532-5.39063 54 54 0 0 0 -.134766-3.82031 54 54 0 0 0 -.650391-5.35742 54 54 0 0 0 -1.18164-5.267581 54 54 0 0 0 -1.703125-5.121094 54 54 0 0 0 -.826172-1.845703z" fill="#5d5d5d" transform="translate(136.83389 121.91784)"/>
    <path d="m240.8125 122.29297a112.00001 112.00001 0 0 1 -.51758 10.35156 112.00001 112.00001 0 0 1 -1.67383 11.07227 112.00001 112.00001 0 0 1 -2.76953 10.84765 112.00001 112.00001 0 0 1 -3.83789 10.51563 112.00001 112.00001 0 0 1 -.17383.36133h-205.855465a112.00001 112.00001 0 0 1 -1.519531-3.39063 112.00001 112.00001 0 0 1 -3.527344-10.625 112.00001 112.00001 0 0 1 -2.455078-10.92578 112.00001 112.00001 0 0 1 -1.34961-11.11133 112.00001 112.00001 0 0 1 -.238281-6.75195 112.00001 112.00001 0 0 0 -.041015.82812 112.00001 112.00001 0 0 0 .279296 7.92383 112.00001 112.00001 0 0 0 1.34961 11.11133 112.00001 112.00001 0 0 0 2.455078 10.92578 112.00001 112.00001 0 0 0 3.527344 10.625 112.00001 112.00001 0 0 0 1.519531 3.39063h205.855465a112.00001 112.00001 0 0 0 .17383-.36133 112.00001 112.00001 0 0 0 3.83789-10.51563 112.00001 112.00001 0 0 0 2.76953-10.84765 112.00001 112.00001 0 0 0 1.67383-11.07227 112.00001 112.00001 0 0 0 .5586-11.17969 112.00001 112.00001 0 0 0 -.04102-1.17187z" opacity=".2" transform="matrix(.48214283 0 0 .48214283 1.874058 175.47225)"/>
  </g>
  <g fill="#f22c42">
    <path d="m58.851562 93.25a29.998358 29.998358 0 0 0 -29.998046 29.99805 29.998358 29.998358 0 0 0 29.998046 29.99804 29.998358 29.998358 0 0 0 29.998047-29.99804 29.998358 29.998358 0 0 0 -29.998047-29.99805zm70.009768 0a29.998358 29.998358 0 0 0 -30.000002 29.99805 29.998358 29.998358 0 0 0 30.000002 29.99804 29.998358 29.998358 0 0 0 29.99805-29.99804 29.998358 29.998358 0 0 0 -29.99805-29.99805zm69.99414 0a29.998358 29.998358 0 0 0 -29.99805 29.99805 29.998358 29.998358 0 0 0 29.99805 29.99804 29.998358 29.998358 0 0 0 29.99805-29.99804 29.998358 29.998358 0 0 0 -29.99805-29.99805z" fill="#f22c42"/>
    <path d="m58.851562 93.25a29.998358 29.998358 0 0 0 -29.998046 29.99805 29.998358 29.998358 0 0 0 .041015.82031 29.998358 29.998358 0 0 1 29.957031-28.81836 29.998358 29.998358 0 0 1 29.957032 29.17773 29.998358 29.998358 0 0 0 .041015-1.17968 29.998358 29.998358 0 0 0 -29.998047-29.99805zm70.009768 0a29.998358 29.998358 0 0 0 -30.000002 29.99805 29.998358 29.998358 0 0 0 .041016.83398 29.998358 29.998358 0 0 1 29.958986-28.83203 29.998358 29.998358 0 0 1 29.95703 29.17773 29.998358 29.998358 0 0 0 .04102-1.17968 29.998358 29.998358 0 0 0 -29.99805-29.99805zm69.99414 0a29.998358 29.998358 0 0 0 -29.99805 29.99805 29.998358 29.998358 0 0 0 .04102.82031 29.998358 29.998358 0 0 1 29.95703-28.81836 29.998358 29.998358 0 0 1 29.95703 29.17773 29.998358 29.998358 0 0 0 .04102-1.17968 29.998358 29.998358 0 0 0 -29.99805-29.99805z" fill="#fff" opacity=".3"/>
    <path d="m28.894531 122.06836a29.998358 29.998358 0 0 0 -.041015 1.17969 29.998358 29.998358 0 0 0 29.998046 29.99804 29.998358 29.998358 0 0 0 29.998047-29.99804 29.998358 29.998358 0 0 0 -.041015-.82032 29.998358 29.998358 0 0 1 -29.957032 28.81836 29.998358 29.998358 0 0 1 -29.957031-29.17773zm140.003909 0a29.998358 29.998358 0 0 0 -.04102 1.17969 29.998358 29.998358 0 0 0 29.99805 29.99804 29.998358 29.998358 0 0 0 29.99805-29.99804 29.998358 29.998358 0 0 0 -.04102-.82032 29.998358 29.998358 0 0 1 -29.95703 28.81836 29.998358 29.998358 0 0 1 -29.95703-29.17773zm-69.996096.01367a29.998358 29.998358 0 0 0 -.041016 1.16602 29.998358 29.998358 0 0 0 30.000002 29.99804 29.998358 29.998358 0 0 0 29.99805-29.99804 29.998358 29.998358 0 0 0 -.04102-.82032 29.998358 29.998358 0 0 1 -29.95703 28.81836 29.998358 29.998358 0 0 1 -29.958986-29.16406z" fill="#0a0a0a" opacity=".2"/>
  </g>
  <path d="m26.082031 79.054688a112.00001 112.00001 0 0 0 -.384765.792968 112.00001 112.00001 0 0 0 -3.839844 10.521485 112.00001 112.00001 0 0 0 -2.771484 10.843749 112.00001 112.00001 0 0 0 -1.673829 11.07031 112.00001 112.00001 0 0 0 -.558593 11.18164 112.00001 112.00001 0 0 0 .041015 1.17188 112.00001 112.00001 0 0 1 .517578-10.35352 112.00001 112.00001 0 0 1 1.673829-11.07031 112.00001 112.00001 0 0 1 2.771484-10.843749 112.00001 112.00001 0 0 1 3.839844-10.521485 112.00001 112.00001 0 0 1 .384765-.792968h205.447269a112.00001 112.00001 0 0 1 1.71289 3.828124 112.00001 112.00001 0 0 1 3.53125 10.621094 112.00001 112.00001 0 0 1 2.45117 10.925784 112.00001 112.00001 0 0 1 1.34961 11.11133 112.00001 112.00001 0 0 1 .23828 6.75195 112.00001 112.00001 0 0 0 .04102-.82813 112.00001 112.00001 0 0 0 -.2793-7.92382 112.00001 112.00001 0 0 0 -1.34961-11.11133 112.00001 112.00001 0 0 0 -2.45117-10.925784 112.00001 112.00001 0 0 0 -3.53125-10.621094 112.00001 112.00001 0 0 0 -1.71289-3.828124z" fill="#e6e6e6" opacity=".3" transform="matrix(1.00000000442 0 0 1.00000000442 .0000003471 .00000654095)"/>
</svg>

<svg xmlns="http://www.w3.org/2000/svg" xmlns:osb="http://www.openswatchbook.org/uri/2009/osb" width="256" height="256" version="1.1">
 <defs>
  <linearGradient id="linearGradient5606" osb:paint="solid">
   <stop id="stop5608" offset="0" style="stop-color:#000000"/>
  </linearGradient>
  <linearGradient id="linearGradient4526" osb:paint="solid">
   <stop id="stop4528" offset="0" style="stop-color:#ffffff"/>
  </linearGradient>
  <linearGradient id="linearGradient3600-4" osb:paint="gradient">
   <stop id="stop3602-7" offset="0" style="stop-color:#f4f4f4"/>
   <stop id="stop3604-6" offset="1" style="stop-color:#dbdbdb"/>
  </linearGradient>
  <clipPath id="clipPath999" clipPathUnits="userSpaceOnUse">
   <path style="fill:#5d5d5d" d="m 152,68 c -48.60106,0 -88,39.39894 -88,88 0,48.60106 39.39894,88 88,88 48.60106,0 88,-39.39894 88,-88 0,-48.60106 -39.39894,-88 -88,-88 z"/>
  </clipPath>
  <filter style="color-interpolation-filters:sRGB" id="filter11191" width="1.024" height="1.024" x="-.01" y="-.01">
   <feGaussianBlur id="feGaussianBlur11193" stdDeviation="1.12"/>
  </filter>
  <filter style="color-interpolation-filters:sRGB" id="filter11210" width="1.096" height="1.096" x="-.05" y="-.05">
   <feGaussianBlur id="feGaussianBlur11212" stdDeviation="4.48"/>
  </filter>
 </defs>
 <circle style="opacity:0.1;filter:url(#filter11210)" cx="128.752" cy="127.248" r="112"/>
 <circle style="opacity:0.1;filter:url(#filter11191)" cx="128.752" cy="125.248" r="112"/>
 <circle style="opacity:0.1" cx="128.752" cy="123.248" r="114"/>
 <circle style="fill:#e6e6e6" cx="-128.854" cy="-123.248" r="112" transform="scale(-1)"/>
 <path style="opacity:0.3;fill:#ffffff" d="M 128.752,11.248005 A 112,112 0 0 0 16.752001,123.24801 112,112 0 0 0 16.793021,124.41793 112,112 0 0 1 128.752,13.248005 112,112 0 0 1 240.71098,124.07809 a 112,112 0 0 0 0.041,-0.83008 112,112 0 0 0 -112,-112.000005 z"/>
 <path style="opacity:0.2" d="m 128.752,235.24801 a 112,112 0 0 1 -111.999999,-112 112,112 0 0 1 0.04102,-1.16992 112,112 0 0 0 111.958979,111.16992 112,112 0 0 0 111.95898,-110.83008 112,112 0 0 1 0.041,0.83008 112,112 0 0 1 -112,112 z"/>
 <path style="opacity:0.25;fill:#ffffff" d="M 16.752001,127.73194 A 112.5345,118.26762 0 0 0 128.72953,235.24801 112.5345,118.26762 0 0 0 240.752,127.73194 Z"/>
 <g style="enable-background:new;fill:#070707" id="layer1-3" transform="matrix(2.0740742,0,0,2.0740742,-3.8869354,-363.94246)">
  <g id="layer9-6" style="fill:#070707">
   <path style="fill:#5d5d5d" d="m -122.38477,91.669922 a 54,54 0 0 0 -0.18554,0.382812 54,54 0 0 0 -1.85157,5.072266 54,54 0 0 0 -1.33593,5.22852 54,54 0 0 0 -0.80664,5.33789 54,54 0 0 0 -0.26953,5.39062 54,54 0 0 0 0.13476,3.82031 54,54 0 0 0 0.65039,5.35743 54,54 0 0 0 1.1836,5.26757 54,54 0 0 0 1.70117,5.12305 54,54 0 0 0 0.73242,1.63477 h 99.251952 a 54,54 0 0 0 0.08398,-0.17383 54,54 0 0 0 1.849609,-5.07031 54,54 0 0 0 1.335938,-5.23047 54,54 0 0 0 0.80664,-5.33789 54,54 0 0 0 0.269532,-5.39063 54,54 0 0 0 -0.134766,-3.82031 54,54 0 0 0 -0.650391,-5.35742 54,54 0 0 0 -1.18164,-5.267581 54,54 0 0 0 -1.703125,-5.121094 54,54 0 0 0 -0.826172,-1.845703 z" transform="translate(136.83389,121.91784)"/>
   <path style="opacity:0.2" d="M 240.8125 122.29297 A 112.00001 112.00001 0 0 1 240.29492 132.64453 A 112.00001 112.00001 0 0 1 238.62109 143.7168 A 112.00001 112.00001 0 0 1 235.85156 154.56445 A 112.00001 112.00001 0 0 1 232.01367 165.08008 A 112.00001 112.00001 0 0 1 231.83984 165.44141 L 25.984375 165.44141 A 112.00001 112.00001 0 0 1 24.464844 162.05078 A 112.00001 112.00001 0 0 1 20.9375 151.42578 A 112.00001 112.00001 0 0 1 18.482422 140.5 A 112.00001 112.00001 0 0 1 17.132812 129.38867 A 112.00001 112.00001 0 0 1 16.894531 122.63672 A 112.00001 112.00001 0 0 0 16.853516 123.46484 A 112.00001 112.00001 0 0 0 17.132812 131.38867 A 112.00001 112.00001 0 0 0 18.482422 142.5 A 112.00001 112.00001 0 0 0 20.9375 153.42578 A 112.00001 112.00001 0 0 0 24.464844 164.05078 A 112.00001 112.00001 0 0 0 25.984375 167.44141 L 231.83984 167.44141 A 112.00001 112.00001 0 0 0 232.01367 167.08008 A 112.00001 112.00001 0 0 0 235.85156 156.56445 A 112.00001 112.00001 0 0 0 238.62109 145.7168 A 112.00001 112.00001 0 0 0 240.29492 134.64453 A 112.00001 112.00001 0 0 0 240.85352 123.46484 A 112.00001 112.00001 0 0 0 240.8125 122.29297 z" transform="matrix(0.48214283,0,0,0.48214283,1.874058,175.47225)"/>
  </g>
 </g>
 <g transform="translate(1.1769454,1.0257223)" style="fill:#f22c42">
  <path style="fill:#f22c42" d="M 58.851562 93.25 A 29.998358 29.998358 0 0 0 28.853516 123.24805 A 29.998358 29.998358 0 0 0 58.851562 153.24609 A 29.998358 29.998358 0 0 0 88.849609 123.24805 A 29.998358 29.998358 0 0 0 58.851562 93.25 z M 128.86133 93.25 A 29.998358 29.998358 0 0 0 98.861328 123.24805 A 29.998358 29.998358 0 0 0 128.86133 153.24609 A 29.998358 29.998358 0 0 0 158.85938 123.24805 A 29.998358 29.998358 0 0 0 128.86133 93.25 z M 198.85547 93.25 A 29.998358 29.998358 0 0 0 168.85742 123.24805 A 29.998358 29.998358 0 0 0 198.85547 153.24609 A 29.998358 29.998358 0 0 0 228.85352 123.24805 A 29.998358 29.998358 0 0 0 198.85547 93.25 z" transform="translate(-1.1769454,-1.0257223)"/>
  <path style="fill:#ffffff;opacity:0.3" d="M 58.851562 93.25 A 29.998358 29.998358 0 0 0 28.853516 123.24805 A 29.998358 29.998358 0 0 0 28.894531 124.06836 A 29.998358 29.998358 0 0 1 58.851562 95.25 A 29.998358 29.998358 0 0 1 88.808594 124.42773 A 29.998358 29.998358 0 0 0 88.849609 123.24805 A 29.998358 29.998358 0 0 0 58.851562 93.25 z M 128.86133 93.25 A 29.998358 29.998358 0 0 0 98.861328 123.24805 A 29.998358 29.998358 0 0 0 98.902344 124.08203 A 29.998358 29.998358 0 0 1 128.86133 95.25 A 29.998358 29.998358 0 0 1 158.81836 124.42773 A 29.998358 29.998358 0 0 0 158.85938 123.24805 A 29.998358 29.998358 0 0 0 128.86133 93.25 z M 198.85547 93.25 A 29.998358 29.998358 0 0 0 168.85742 123.24805 A 29.998358 29.998358 0 0 0 168.89844 124.06836 A 29.998358 29.998358 0 0 1 198.85547 95.25 A 29.998358 29.998358 0 0 1 228.8125 124.42773 A 29.998358 29.998358 0 0 0 228.85352 123.24805 A 29.998358 29.998358 0 0 0 198.85547 93.25 z" transform="translate(-1.1769454,-1.0257223)"/>
  <path style="fill:#0a0a0a;opacity:0.2" d="M 28.894531 122.06836 A 29.998358 29.998358 0 0 0 28.853516 123.24805 A 29.998358 29.998358 0 0 0 58.851562 153.24609 A 29.998358 29.998358 0 0 0 88.849609 123.24805 A 29.998358 29.998358 0 0 0 88.808594 122.42773 A 29.998358 29.998358 0 0 1 58.851562 151.24609 A 29.998358 29.998358 0 0 1 28.894531 122.06836 z M 168.89844 122.06836 A 29.998358 29.998358 0 0 0 168.85742 123.24805 A 29.998358 29.998358 0 0 0 198.85547 153.24609 A 29.998358 29.998358 0 0 0 228.85352 123.24805 A 29.998358 29.998358 0 0 0 228.8125 122.42773 A 29.998358 29.998358 0 0 1 198.85547 151.24609 A 29.998358 29.998358 0 0 1 168.89844 122.06836 z M 98.902344 122.08203 A 29.998358 29.998358 0 0 0 98.861328 123.24805 A 29.998358 29.998358 0 0 0 128.86133 153.24609 A 29.998358 29.998358 0 0 0 158.85938 123.24805 A 29.998358 29.998358 0 0 0 158.81836 122.42773 A 29.998358 29.998358 0 0 1 128.86133 151.24609 A 29.998358 29.998358 0 0 1 98.902344 122.08203 z" transform="translate(-1.1769454,-1.0257223)"/>
 </g>
 <g transform="matrix(2.0740742,0,0,2.0740742,-3.8869354,-363.94246)" style="enable-background:new;fill:#070707">
  <g style="fill:#070707">
   <path style="opacity:0.3;fill:#e6e6e6" d="M 26.082031 79.054688 A 112.00001 112.00001 0 0 0 25.697266 79.847656 A 112.00001 112.00001 0 0 0 21.857422 90.369141 A 112.00001 112.00001 0 0 0 19.085938 101.21289 A 112.00001 112.00001 0 0 0 17.412109 112.2832 A 112.00001 112.00001 0 0 0 16.853516 123.46484 A 112.00001 112.00001 0 0 0 16.894531 124.63672 A 112.00001 112.00001 0 0 1 17.412109 114.2832 A 112.00001 112.00001 0 0 1 19.085938 103.21289 A 112.00001 112.00001 0 0 1 21.857422 92.369141 A 112.00001 112.00001 0 0 1 25.697266 81.847656 A 112.00001 112.00001 0 0 1 26.082031 81.054688 L 231.5293 81.054688 A 112.00001 112.00001 0 0 1 233.24219 84.882812 A 112.00001 112.00001 0 0 1 236.77344 95.503906 A 112.00001 112.00001 0 0 1 239.22461 106.42969 A 112.00001 112.00001 0 0 1 240.57422 117.54102 A 112.00001 112.00001 0 0 1 240.8125 124.29297 A 112.00001 112.00001 0 0 0 240.85352 123.46484 A 112.00001 112.00001 0 0 0 240.57422 115.54102 A 112.00001 112.00001 0 0 0 239.22461 104.42969 A 112.00001 112.00001 0 0 0 236.77344 93.503906 A 112.00001 112.00001 0 0 0 233.24219 82.882812 A 112.00001 112.00001 0 0 0 231.5293 79.054688 L 26.082031 79.054688 z" transform="matrix(0.48214283,0,0,0.48214283,1.874058,175.47225)"/>
  </g>
 </g>
</svg>
